svgs/light/bell-concierge.svg

<svg xmlns="http://www.w3.org/2000/svg" viewBox="0 0 512 512"><!-- Font Awesome Pro 6.0.0-alpha2 by @fontawesome - https://fontawesome.com License - https://fontawesome.com/license (Commercial License) --><path d="M48 384C56.844 384 64 376.844 64 368C64 262.125 150.125 176 256 176S448 262.125 448 368C448 376.844 455.156 384 464 384S480 376.844 480 368C480 249.9 388.033 153.074 272 144.811V96H304C312.844 96 320 88.844 320 80S312.844 64 304 64H208C199.156 64 192 71.156 192 80S199.156 96 208 96H240V144.811C123.967 153.074 32 249.9 32 368C32 376.844 39.156 384 48 384ZM496 416H16C7.156 416 0 423.156 0 432S7.156 448 16 448H496C504.844 448 512 440.844 512 432S504.844 416 496 416Z"/></svg>

<svg xmlns="http://www.w3.org/2000/svg" viewBox="0 0 512 512"><!--! Font Awesome Pro 6.0.0-alpha3 by @fontawesome - https://fontawesome.com License - https://fontawesome.com/license (Commercial License) --><path d="M48 384C56.84 384 64 376.8 64 368c0-105.9 86.13-192 192-192s192 86.13 192 192c0 8.844 7.156 16 16 16s16-7.156 16-16c0-118.1-91.97-214.9-208-223.2V96h32C312.8 96 320 88.84 320 80S312.8 64 304 64h-96C199.2 64 192 71.16 192 80S199.2 96 208 96h32v48.81C123.1 153.1 32 249.9 32 368C32 376.8 39.16 384 48 384zM496 416h-480C7.156 416 0 423.2 0 432S7.156 448 16 448h480c8.844 0 16-7.156 16-16S504.8 416 496 416z"/></svg>
